svg/filled/send.svg

<svg width="24" height="24" viewBox="0 0 24 24" fill="none" xmlns="http://www.w3.org/2000/svg">
<path fill-rule="evenodd" clip-rule="evenodd" d="M5.00003 14.9968C5.41424 14.9968 5.75003 15.3326 5.75003 15.7468V18C5.75003 18.1381 5.86196 18.25 6.00003 18.25H18C18.1381 18.25 18.25 18.1381 18.25 18V15.7468C18.25 15.3326 18.5858 14.9968 19 14.9968C19.4142 14.9968 19.75 15.3326 19.75 15.7468V18C19.75 18.9665 18.9665 19.75 18 19.75H6.00003C5.03353 19.75 4.25003 18.9665 4.25003 18V15.7468C4.25003 15.3326 4.58582 14.9968 5.00003 14.9968Z" fill="black"/>
<path fill-rule="evenodd" clip-rule="evenodd" d="M12.2023 5.58088C12.6165 5.58088 12.9523 5.91667 12.9523 6.33088V14.4165C12.9523 14.8307 12.6165 15.1665 12.2023 15.1665C11.7881 15.1665 11.4523 14.8307 11.4523 14.4165V6.33088C11.4523 5.91667 11.7881 5.58088 12.2023 5.58088Z" fill="black"/>
<path fill-rule="evenodd" clip-rule="evenodd" d="M11.678 4.46356C11.9694 4.17885 12.4348 4.17885 12.7262 4.46356L16.0701 7.73038C16.3663 8.01984 16.3719 8.49468 16.0824 8.79097C15.7929 9.08725 15.3181 9.09278 15.0218 8.80332L12.2021 6.04855L9.38239 8.80332C9.08611 9.09278 8.61127 9.08725 8.32181 8.79097C8.03234 8.49468 8.03787 8.01984 8.33416 7.73038L11.678 4.46356Z" fill="black"/>
</svg>

<svg xmlns="http://www.w3.org/2000/svg" viewBox="0 0 24 24" fill="currentColor">
  <path fill-rule="evenodd" d="M5 14.997a.75.75 0 01.75.75V18c0 .138.112.25.25.25h12a.25.25 0 00.25-.25v-2.253a.75.75 0 011.5 0V18A1.75 1.75 0 0118 19.75H6A1.75 1.75 0 014.25 18v-2.253a.75.75 0 01.75-.75z" clip-rule="evenodd"/>
  <path fill-rule="evenodd" d="M12.202 5.58a.75.75 0 01.75.75v8.086a.75.75 0 01-1.5 0V6.331a.75.75 0 01.75-.75z" clip-rule="evenodd"/>
  <path fill-rule="evenodd" d="M11.678 4.464a.75.75 0 011.048 0L16.07 7.73a.75.75 0 01-1.048 1.073l-2.82-2.754-2.82 2.754A.75.75 0 118.334 7.73l3.344-3.266z" clip-rule="evenodd"/>
</svg>
